X:593
T:An dro - Hanter dro
C:Stephan Steiner
Z:abc transcription Simon Wascher
N:please mail errors to simon.wascher@chello.at
M:2/4
L:1/8
K:Gdorian
de/f/ d>c|Ac BG|de/f/ d>c|ABG2|
 de/f/ d>c|Ac BG|de/f/ d>c|AB G2||
Z:abc transcription Simon Wascher
N:please mail errors to simon.wascher@chello.at
M:3/4
BA/G/ cd A2|BA/G/ cdA2 |BA/G/ c/d/A/B/G2|BA/G/ cdA2|
BA/G/ cd A2|BA/G/ c/d/A/B/G2|]


